frogger/_inc/system.svg

<svg xmlns="http://www.w3.org/2000/svg"><g fill="#fff"><path d="m75.693 95.449-3.339-3.003-.219-42.348-.111-42.348 2.667-2.889c2.667-2.889 2.892-2.889 20.121-2.889 22.338 0 27.228 1.332 35.007 9.222 12.558 12.894 12.558 29.346-.111 42.906-3.33 3.669-8.109 7.557-10.557 8.667-2.334 1.002-4.338 2.112-4.23 2.451 0 .33 3.786 3.444 8.34 6.777 4.668 3.333 10.449 8.004 12.894 10.227 4.002 3.666 4.446 4.554 3.78 7.779-.333 2.004-1.782 4.557-3.225 5.559-5.223 4.113-5.892 3.669-36.342-21.675l-11.673-9.672-.333 14.118c-.225 12.45-.555 14.448-2.556 16.56-3.555 3.891-6.339 4.002-10.113.558zm36.342-43.353c12.117-5.445 15.339-20.781 6.336-29.229-4.998-4.671-7.332-5.337-19.008-5.337h-11.226v18.339 18.339h9.783c7.002 0 10.893-.663 14.115-2.112z"/><path d="m182.508 96.556c-3.45-1.107-8.676-3.666-11.67-5.775-3.003-2.001-5.895-3.561-6.561-3.447-.558.222-.78 0-.333-.444s-1.002-2.781-3.333-5.334c-7.002-7.671-12.453-21.231-12.453-31.458 0-13.227 6.003-27.231 15.675-36.459 20.451-19.56 51.237-17.892 71.361 3.783 6.666 7.224 10.11 14.673 12.111 26.115 3.999 22.569-12.561 47.463-35.679 53.58-8.337 2.112-21.453 1.89-29.118-.561zm32.34-19.449c10.785-7.113 15.678-15.783 15.783-27.897 0-13.452-6.441-23.454-18.783-29.124-5.115-2.334-7.332-2.775-14.559-2.334-18.114.78-30.123 12.453-31.125 29.901-.774 13.002 6.117 24.453 18.228 30.567 4.782 2.442 6.672 2.667 15.561 2.334 9.003-.222 10.782-.669 14.895-3.447z"/><path d="m192.285 58.657c-6.555-5.223-5.445-15.891 2.115-19.452 4.557-2.109 6.558-2.109 10.449.222 6.447 3.78 7.329 11.559 2.109 17.565-2.778 3.108-4.221 3.888-7.671 3.888-2.442 0-5.334-.891-7.002-2.223z"/><path d="m292.656 96.118c-9.117-3.228-15.006-7.008-20.229-12.786-10.338-11.448-13.563-20.565-12.894-36.348.336-8.892.885-11.226 4.224-17.892 9.558-19.452 32.232-31.902 51.795-28.347 8.559 1.56 20.454 7.56 22.563 11.451 2.109 3.783.777 8.112-3.444 11.229l-3.003 2.22-6.777-3.558c-22.122-11.556-46.017.447-48.465 24.231-1.443 13.452 6.336 27.009 18.675 32.343 7.779 3.336 20.895 4.338 26.676 1.893 5.889-2.445 8.781-7.668 8.448-15.006l-.336-5.895-11.226-.219c-9.333-.219-11.781-.555-13.671-2.334-2.889-2.664-3-6.669-.111-9.558 2.001-2.001 3.669-2.223 18.789-2.223 15.669 0 16.779.111 19.56 2.559 2.775 2.334 2.889 2.886 3.111 15.78.111 10.449-.222 14.115-1.668 16.674-7.893 14.781-33.123 22.452-52.017 15.786z"/><path d="m389.574 95.89c-13.224-4.89-23.895-15.558-29.226-29.229-2.004-5.004-2.556-8.559-2.556-16.896.108-9.333.441-11.448 3.555-18.783 1.998-4.56 5.334-10.449 7.557-13.116 7.113-8.67 19.008-15.342 31.341-17.454 6.45-1.11 20.343 1.335 27.678 4.896 10.896 5.445 14.229 11.445 8.892 16.443-3.441 3.228-7.11 3.12-14.337-.663-5.226-2.67-7.113-3-16.452-3-10.446 0-10.668 0-17.223 4.446-13.122 8.781-18.009 26.118-11.229 39.903 6.777 13.893 19.785 20.673 36.237 19.005 6.333-.666 7.665-1.221 11.334-5.004 3.891-3.774 4.224-4.665 4.224-10.332v-6.117l-11.67-.444c-10.896-.33-11.778-.555-14.559-3.333-2.781-2.667-2.895-3.222-1.557-6.339.666-1.884 2.226-3.663 3.222-3.885 2.889-.891 32.679-1.221 35.124-.339 4.557 1.56 6.114 6.339 6.114 18.786 0 10.002-.333 12.336-2.556 16.56-7.674 14.565-34.788 22.011-53.913 14.895z"/><path d="m534.96 95.338c-1.221-1.221-2.442-3.333-2.775-4.665-.336-1.449-.558-20.79-.336-42.912l.336-40.455 2.775-2.223c2.562-2.001 4.002-2.226 22.785-1.779 19.674.336 20.121.447 25.344 3.447 9.894 5.892 15.783 17.112 15.006 28.788-.78 12.558-8.889 23.781-19.23 26.673-2.445.669-4.89 1.671-5.334 2.112-.552.441 1.671 2.892 5.001 5.337 22.23 17.229 23.01 18.228 20.454 23.229-3.003 5.892-7.782 6.222-14.448 1.113-5.562-4.449-22.569-18.453-25.677-21.228-1.227-1.116-4.116-3.558-6.336-5.445l-4.221-3.336v11.004c-.114 17.118-2.115 22.563-8.559 22.563-1.449 0-3.564-1.005-4.785-2.223zm39.015-43.014c5.892-3.45 9.225-9.78 9.336-17.007 0-7.002-1.776-10.557-7.671-14.895-2.553-2.004-4.998-2.442-15.225-2.67l-12.111-.441v18.447 18.45h11.22c8.673 0 12.006-.441 14.451-1.884z"/><path d="m3.219 95.113-2.778-2.559-.333-41.232c-.333-46.014-.333-46.239 6.777-48.24 6.003-1.668 46.686-.108 49.908 2.001 3.555 2.334 3.222 7.224-.552 10.227-3.003 2.331-4.002 2.442-21.45 2.112l-18.345-.447-.333 13.116-.333 13.002 12.561.114c16.449.222 19.449.447 21.45 2.112 2.337 2.001 2.115 6.003-.666 8.448-1.998 1.89-4.224 2.109-17.562 2.223l-15.117.108-.555 18.12-.552 18.006-3.12 2.667c-3.885 3.336-5.445 3.336-9 .222z"/><path d="m466.161 96.448c-7.338-1.668-7.005.108-6.894-45.462.117-22.785.669-42.567 1.224-44.013 1.89-4.89 4.224-5.226 30.012-4.89 21.894.441 24.45.666 26.559 2.553 3.342 3.003 3.006 7.782-.549 10.56-2.781 2.115-4.446 2.334-21.786 2.334h-18.786l.333 12.45.333 12.447h15.891c14.454.117 16.125.339 17.568 2.223.888 1.224 1.551 3.339 1.551 4.671 0 4.665-2.664 5.445-19.668 5.781l-15.897.444v13.785 13.779h19.896 20.004l2.226 3.222c2.667 3.78 1.776 8.004-1.998 10.116-2.562 1.332-43.905 1.332-50.019 0z"/></g></svg>

<?xml version="1.0" encoding="utf-8"?>
<svg version="1.0" xmlns="http://www.w3.org/2000/svg">
  <g>
    <path d="M 75.693 95.449 L 72.354 92.446 L 72.135 50.098 L 72.024 7.75 L 74.691 4.861 C 77.358 1.972 77.583 1.972 94.812 1.972 C 117.15 1.972 122.04 3.304 129.819 11.194 C 142.377 24.088 142.377 40.54 129.708 54.1 C 126.378 57.769 121.599 61.657 119.151 62.767 C 116.817 63.769 114.813 64.879 114.921 65.218 C 114.921 65.548 118.707 68.662 123.261 71.995 C 127.929 75.328 133.71 79.999 136.155 82.222 C 140.157 85.888 140.601 86.776 139.935 90.001 C 139.602 92.005 138.153 94.558 136.71 95.56 C 131.487 99.673 130.818 99.229 100.368 73.885 L 88.695 64.213 L 88.362 78.331 C 88.137 90.781 87.807 92.779 85.806 94.891 C 82.251 98.782 79.467 98.893 75.693 95.449 Z M 112.035 52.096 C 124.152 46.651 127.374 31.315 118.371 22.867 C 113.373 18.196 111.039 17.53 99.363 17.53 L 88.137 17.53 L 88.137 35.869 L 88.137 54.208 L 97.92 54.208 C 104.922 54.208 108.813 53.545 112.035 52.096 Z" style="fill: rgb(255, 255, 255);"/>
    <path d="M 182.508 96.556 C 179.058 95.449 173.832 92.89 170.838 90.781 C 167.835 88.78 164.943 87.22 164.277 87.334 C 163.719 87.556 163.497 87.334 163.944 86.89 C 164.391 86.446 162.942 84.109 160.611 81.556 C 153.609 73.885 148.158 60.325 148.158 50.098 C 148.158 36.871 154.161 22.867 163.833 13.639 C 184.284 -5.921 215.07 -4.253 235.194 17.422 C 241.86 24.646 245.304 32.095 247.305 43.537 C 251.304 66.106 234.744 91 211.626 97.117 C 203.289 99.229 190.173 99.007 182.508 96.556 Z M 214.848 77.107 C 225.633 69.994 230.526 61.324 230.631 49.21 C 230.631 35.758 224.19 25.756 211.848 20.086 C 206.733 17.752 204.516 17.311 197.289 17.752 C 179.175 18.532 167.166 30.205 166.164 47.653 C 165.39 60.655 172.281 72.106 184.392 78.22 C 189.174 80.662 191.064 80.887 199.953 80.554 C 208.956 80.332 210.735 79.885 214.848 77.107 Z" style="fill: rgb(255, 255, 255);"/>
    <path d="M 192.285 58.657 C 185.73 53.434 186.84 42.766 194.4 39.205 C 198.957 37.096 200.958 37.096 204.849 39.427 C 211.296 43.207 212.178 50.986 206.958 56.992 C 204.18 60.1 202.737 60.88 199.287 60.88 C 196.845 60.88 193.953 59.989 192.285 58.657 Z" style="fill: rgb(255, 255, 255);"/>
    <path d="M 292.656 96.118 C 283.539 92.89 277.65 89.11 272.427 83.332 C 262.089 71.884 258.864 62.767 259.533 46.984 C 259.869 38.092 260.418 35.758 263.757 29.092 C 273.315 9.64 295.989 -2.81 315.552 0.745 C 324.111 2.305 336.006 8.305 338.115 12.196 C 340.224 15.979 338.892 20.308 334.671 23.425 L 331.668 25.645 L 324.891 22.087 C 302.769 10.531 278.874 22.534 276.426 46.318 C 274.983 59.77 282.762 73.327 295.101 78.661 C 302.88 81.997 315.996 82.999 321.777 80.554 C 327.666 78.109 330.558 72.886 330.225 65.548 L 329.889 59.653 L 318.663 59.434 C 309.33 59.215 306.882 58.879 304.992 57.1 C 302.103 54.436 301.992 50.431 304.881 47.542 C 306.882 45.541 308.55 45.319 323.67 45.319 C 339.339 45.319 340.449 45.43 343.23 47.878 C 346.005 50.212 346.119 50.764 346.341 63.658 C 346.452 74.107 346.119 77.773 344.673 80.332 C 336.78 95.113 311.55 102.784 292.656 96.118 Z" style="fill: rgb(255, 255, 255);"/>
    <path d="M 389.574 95.89 C 376.35 91 365.679 80.332 360.348 66.661 C 358.344 61.657 357.792 58.102 357.792 49.765 C 357.9 40.432 358.233 38.317 361.347 30.982 C 363.345 26.422 366.681 20.533 368.904 17.866 C 376.017 9.196 387.912 2.524 400.245 0.412 C 406.695 -0.698 420.588 1.747 427.923 5.308 C 438.819 10.753 442.152 16.753 436.815 21.751 C 433.374 24.979 429.705 24.871 422.478 21.088 C 417.252 18.418 415.365 18.088 406.026 18.088 C 395.58 18.088 395.358 18.088 388.803 22.534 C 375.681 31.315 370.794 48.652 377.574 62.437 C 384.351 76.33 397.359 83.11 413.811 81.442 C 420.144 80.776 421.476 80.221 425.145 76.438 C 429.036 72.664 429.369 71.773 429.369 66.106 L 429.369 59.989 L 417.699 59.545 C 406.803 59.215 405.921 58.99 403.14 56.212 C 400.359 53.545 400.245 52.99 401.583 49.873 C 402.249 47.989 403.809 46.21 404.805 45.988 C 407.694 45.097 437.484 44.767 439.929 45.649 C 444.486 47.209 446.043 51.988 446.043 64.435 C 446.043 74.437 445.71 76.771 443.487 80.995 C 435.813 95.56 408.699 103.006 389.574 95.89 Z" style="fill: rgb(255, 255, 255);"/>
    <path d="M 534.96 95.338 C 533.739 94.117 532.518 92.005 532.185 90.673 C 531.849 89.224 531.627 69.883 531.849 47.761 L 532.185 7.306 L 534.96 5.083 C 537.522 3.082 538.962 2.857 557.745 3.304 C 577.419 3.64 577.866 3.751 583.089 6.751 C 592.983 12.643 598.872 23.863 598.095 35.539 C 597.315 48.097 589.206 59.32 578.865 62.212 C 576.42 62.881 573.975 63.883 573.531 64.324 C 572.979 64.765 575.202 67.216 578.532 69.661 C 600.762 86.89 601.542 87.889 598.986 92.89 C 595.983 98.782 591.204 99.112 584.538 94.003 C 578.976 89.554 561.969 75.55 558.861 72.775 C 557.634 71.659 554.745 69.217 552.525 67.33 L 548.304 63.994 L 548.304 74.998 C 548.19 92.116 546.189 97.561 539.745 97.561 C 538.296 97.561 536.181 96.556 534.96 95.338 Z M 573.975 52.324 C 579.867 48.874 583.2 42.544 583.311 35.317 C 583.311 28.315 581.535 24.76 575.64 20.422 C 573.087 18.418 570.642 17.98 560.415 17.752 L 548.304 17.311 L 548.304 35.758 L 548.304 54.208 L 559.524 54.208 C 568.197 54.208 571.53 53.767 573.975 52.324 Z" style="fill: rgb(255, 255, 255);"/>
    <path d="M 3.219 95.113 L 0.441 92.554 L 0.108 51.322 C -0.225 5.308 -0.225 5.083 6.885 3.082 C 12.888 1.414 53.571 2.974 56.793 5.083 C 60.348 7.417 60.015 12.307 56.241 15.31 C 53.238 17.641 52.239 17.752 34.791 17.422 L 16.446 16.975 L 16.113 30.091 L 15.78 43.093 L 28.341 43.207 C 44.79 43.429 47.79 43.654 49.791 45.319 C 52.128 47.32 51.906 51.322 49.125 53.767 C 47.127 55.657 44.901 55.876 31.563 55.99 L 16.446 56.098 L 15.891 74.218 L 15.339 92.224 L 12.219 94.891 C 8.334 98.227 6.774 98.227 3.219 95.113 Z" style="fill: rgb(255, 255, 255);"/>
    <path d="M 466.161 96.448 C 458.823 94.78 459.156 96.556 459.267 50.986 C 459.384 28.201 459.936 8.419 460.491 6.973 C 462.381 2.083 464.715 1.747 490.503 2.083 C 512.397 2.524 514.953 2.749 517.062 4.636 C 520.404 7.639 520.068 12.418 516.513 15.196 C 513.732 17.311 512.067 17.53 494.727 17.53 L 475.941 17.53 L 476.274 29.98 L 476.607 42.427 L 492.498 42.427 C 506.952 42.544 508.623 42.766 510.066 44.65 C 510.954 45.874 511.617 47.989 511.617 49.321 C 511.617 53.986 508.953 54.766 491.949 55.102 L 476.052 55.546 L 476.052 69.331 L 476.052 83.11 L 495.948 83.11 L 515.952 83.11 L 518.178 86.332 C 520.845 90.112 519.954 94.336 516.18 96.448 C 513.618 97.78 472.275 97.78 466.161 96.448 Z" style="fill: rgb(255, 255, 255);"/>
  </g>
</svg>
